Adwaita++-Dark/status/symbolic/media-playlist-repeat-song-rtl-symbolic.svg

<svg height="16" width="16" xmlns="http://www.w3.org/2000/svg">
  <g fill="#e6ddff">
    <path d="m4.5 8c-1.93 0-3.5 1.57-3.5 3.5s1.57 3.5 3.5 3.5 3.5-1.57 3.5-3.5-1.57-3.5-3.5-3.5zm-.5 1h1v5h-1v-3.5h-1v-.5c1 0 1-1 1-1z"/>
    <path d="m10 1-4 3 4 3v-2h2c.554 0 1 .446 1 1v4c0 .554-.446 1-1 1h-3.0332a4.5 4.5 0 0 1 .0332.5 4.5 4.5 0 0 1 -.2637 1.5h3.2637c1.662 0 3-1.338 3-3v-4c0-1.662-1.338-3-3-3h-2zm-6 2c-1.662 0-3 1.338-3 3v2.6777a4.5 4.5 0 0 1 2-1.414v-1.2637c0-.554.446-1 1-1h1v-2z"/>
  </g>
</svg>

<svg xmlns="http://www.w3.org/2000/svg" width="16" height="16" version="1.1">
 <path style="fill:#E6DDFF" d="M 4.5,8 C 2.57,8 1,9.57 1,11.5 1,13.43 2.57,15 4.5,15 6.43,15 8,13.43 8,11.5 8,9.57 6.43,8 4.5,8 Z M 4,9 H 5 V 14 H 4 V 10.5 H 3 V 10 C 4,10 4,9 4,9 Z"/>
 <path style="fill:#E6DDFF" d="M 10 1 L 6 4 L 10 7 L 10 5 L 12 5 C 12.554 5 13 5.446 13 6 L 13 10 C 13 10.554 12.554 11 12 11 L 8.9668 11 A 4.5 4.5 0 0 1 9 11.5 A 4.5 4.5 0 0 1 8.7363 13 L 12 13 C 13.662 13 15 11.662 15 10 L 15 6 C 15 4.338 13.662 3 12 3 L 10 3 L 10 1 z M 4 3 C 2.338 3 1 4.338 1 6 L 1 8.6777 A 4.5 4.5 0 0 1 3 7.2637 L 3 6 C 3 5.446 3.446 5 4 5 L 5 5 L 5 3 L 4 3 z"/>
</svg>
